X:1
T:Poulles Houppees
T:Crested Hens
C:Gilles Chabenat
M:3/8
L:1/8
R:bourree
K:Edor
E3 | GFE | B3- | B Bc | dcB | edc | dcB | AGF |
E3 | GFE | B3- | B Bc | dcB | AGA |1 B3 | GFD :|2 B3- | B ef |:
K:Emin
gBB | ggB | c3- | c ef | gfa | gfe | ^d2 e- | e f2 |
gBB | ggB | c3- | c ef | gfa | gfd |1 e3 | eef :|2 e3 | GFA |]
